X: 263
M: 6/8
L: 1/8
K: G
dBd dBd | gag gfe | dBd dcB | AFD D2(B/c/) |\
dBd dBd | gag gfe | dcB AGF | GAG G2 ||
(B/c/) |\
dBd dBd | gag gfe | dgd BdB | AFD D2 (B/c/) |\
dBd ece fdf gfe | dcB Agf | g2g gab |]


